icons/html.svg

<svg height="2500" preserveAspectRatio="xMinYMin meet" viewBox="0 0 256 361" width="1773" xmlns="http://www.w3.org/2000/svg"><path d="m255.555 70.766-23.241 260.36-104.47 28.962-104.182-28.922-23.217-260.4z" fill="#e44d26"/><path d="m128 337.95 84.417-23.403 19.86-222.49h-104.277z" fill="#f16529"/><path d="m82.82 155.932h45.18v-31.937h-80.083l.764 8.568 7.85 88.01h71.469v-31.937h-42.261zm7.198 80.61h-32.06l4.474 50.146 65.421 18.16.147-.04v-33.228l-.14.037-35.568-9.604z" fill="#ebebeb"/><path d="m24.18 0h16.23v16.035h14.847v-16.035h16.231v48.558h-16.23v-16.26h-14.847v16.26h-16.23v-48.558zm68.65 16.103h-14.286v-16.103h44.814v16.103h-14.295v32.455h-16.23v-32.455h-.001zm37.64-16.103h16.923l10.41 17.062 10.4-17.062h16.93v48.558h-16.164v-24.068l-11.166 17.265h-.28l-11.173-17.265v24.068h-15.88zm62.74 0h16.235v32.508h22.824v16.05h-39.06v-48.558z"/><path d="m127.89 220.573h39.327l-3.708 41.42-35.62 9.614v33.226l65.473-18.145.48-5.396 7.506-84.08.779-8.576h-74.237zm0-64.719v.078h77.143l.64-7.178 1.456-16.191.763-8.568h-80.002v31.86z" fill="#fff"/></svg>

<svg width="1773" height="2500" viewBox="0 0 256 361" xmlns="http://www.w3.org/2000/svg" preserveAspectRatio="xMinYMin meet"><path d="M255.555 70.766l-23.241 260.36-104.47 28.962-104.182-28.922L.445 70.766h255.11z" fill="#E44D26"/><path d="M128 337.95l84.417-23.403 19.86-222.49H128V337.95z" fill="#F16529"/><path d="M82.82 155.932H128v-31.937H47.917l.764 8.568 7.85 88.01H128v-31.937H85.739l-2.919-32.704zM90.018 236.542h-32.06l4.474 50.146 65.421 18.16.147-.04V271.58l-.14.037-35.568-9.604-2.274-25.471z" fill="#EBEBEB"/><path d="M24.18 0h16.23v16.035h14.847V0h16.231v48.558h-16.23v-16.26H40.411v16.26h-16.23V0zM92.83 16.103H78.544V0h44.814v16.103h-14.295v32.455h-16.23V16.103h-.001zM130.47 0h16.923l10.41 17.062L168.203 0h16.93v48.558h-16.164V24.49l-11.166 17.265h-.28L146.35 24.49v24.068h-15.88V0zM193.21 0h16.235v32.508h22.824v16.05h-39.06V0z"/><path d="M127.89 220.573h39.327l-3.708 41.42-35.62 9.614v33.226l65.473-18.145.48-5.396 7.506-84.08.779-8.576H127.89v31.937zM127.89 155.854v.078h77.143l.64-7.178 1.456-16.191.763-8.568H127.89v31.86z" fill="#FFF"/></svg>
